public/cloud-icons/azure/networking/route-server.svg

<?xml version="1.0" encoding="UTF-8" standalone="no"?>
<!-- Generated by Microsoft Visio, SVG Export Route Server.svg Page-1 -->

<svg
   xmlns:dc="http://purl.org/dc/elements/1.1/"
   xmlns:cc="http://creativecommons.org/ns#"
   xmlns:rdf="http://www.w3.org/1999/02/22-rdf-syntax-ns#"
   xmlns:svg="http://www.w3.org/2000/svg"
   xmlns="http://www.w3.org/2000/svg"
   xmlns:sodipodi="http://sodipodi.sourceforge.net/DTD/sodipodi-0.dtd"
   xmlns:inkscape="http://www.inkscape.org/namespaces/inkscape"
   width="0.78739846in"
   height="0.78739846in"
   viewBox="0 0 56.692597 56.693"
   xml:space="preserve"
   class="st4"
   version="1.1"
   id="svg41"
   sodipodi:docname="Route Server.svg"
   style="font-size:12px;overflow:visible;color-interpolation-filters:sRGB;fill:none;fill-rule:evenodd;stroke-linecap:square;stroke-miterlimit:3"
   inkscape:version="0.92.5 (2060ec1f9f, 2020-04-08)"><metadata
   id="metadata45"><rdf:RDF><cc:Work
       rdf:about=""><dc:format>image/svg+xml</dc:format><dc:type
         rdf:resource="http://purl.org/dc/dcmitype/StillImage" /></cc:Work></rdf:RDF></metadata><sodipodi:namedview
   pagecolor="#ffffff"
   bordercolor="#666666"
   borderopacity="1"
   objecttolerance="10"
   gridtolerance="10"
   guidetolerance="10"
   inkscape:pageopacity="0"
   inkscape:pageshadow="2"
   inkscape:window-width="640"
   inkscape:window-height="480"
   id="namedview43"
   showgrid="false"
   inkscape:zoom="1.4193119"
   inkscape:cx="37.795128"
   inkscape:cy="37.784457"
   inkscape:window-x="0"
   inkscape:window-y="0"
   inkscape:window-maximized="0"
   inkscape:current-layer="svg41" />
	<style
   type="text/css"
   id="style2">
	<![CDATA[
		.st1 {fill:url(#grad0-6);stroke:none;stroke-linecap:butt;stroke-width:34}
		.st2 {fill:#9cebff;stroke:none;stroke-linecap:butt;stroke-width:34}
		.st3 {fill:#f2f2f2;stroke:none;stroke-linecap:butt;stroke-width:34}
		.st4 {fill:none;fill-rule:evenodd;font-size:12px;overflow:visible;stroke-linecap:square;stroke-miterlimit:3}
	]]>
	</style>

	<defs
   id="Patterns_And_Gradients">
		<linearGradient
   id="grad0-6"
   x1="0"
   y1="68.015697"
   x2="56.693001"
   y2="68.015697"
   gradientUnits="userSpaceOnUse">
			<stop
   offset="0"
   stop-color="#005ba1"
   stop-opacity="1"
   id="stop4" />
			<stop
   offset="0.15"
   stop-color="#0063af"
   stop-opacity="1"
   id="stop6" />
			<stop
   offset="0.44"
   stop-color="#006fc3"
   stop-opacity="1"
   id="stop8" />
			<stop
   offset="0.725"
   stop-color="#0076d0"
   stop-opacity="1"
   id="stop10" />
			<stop
   offset="1"
   stop-color="#0078d4"
   stop-opacity="1"
   id="stop12" />
		</linearGradient>
	</defs>
	<g
   id="g39"
   transform="translate(-34.000441,-33.999997)">
		<title
   id="title16">Page-1</title>
		<g
   id="group18820-1"
   transform="translate(34,-34.0157)">
			<title
   id="title18">Route Server.18820</title>
			<g
   id="group18821-2">
				<title
   id="title20">Sheet.18821</title>
				<g
   id="shape18822-3">
					<title
   id="title22">Sheet.18822</title>
					<circle
   cx="28.3465"
   cy="96.362198"
   class="st1"
   id="ellipse24"
   r="28.3465"
   style="fill:url(#grad0-6);stroke:none;stroke-width:34;stroke-linecap:butt" />
				</g>
				<g
   id="shape18823-7"
   transform="translate(20.0878,-3.698)">
					<title
   id="title27">Sheet.18823</title>
					<path
   d="m 0.09,83.51 7.83,-7.82 a 0.929113,0.929113 0 0 1 1.31709,0 L 17.06,83.51 a 0.415208,0.415208 0 0 1 -0.292688,0.711299 L 11.95,84.22 a 0.415208,0.415208 -180 0 0 -0.415208,0.418611 L 11.54,94.42 a 0.340334,0.340334 0 0 1 -0.340334,0.340334 L 5.95,94.76 A 0.340334,0.340334 0 0 1 5.609666,94.419666 L 5.61,84.64 A 0.415208,0.415208 -180 0 0 5.198195,84.221389 L 0.39,84.22 A 0.418611,0.418611 0 0 1 0.093909,83.508701 Z m 16.97,33.1 -7.83,7.82 a 0.929113,0.929113 0 0 1 -1.31709,0 L 0.09,116.61 a 0.418611,0.418611 0 0 1 0.296091,-0.7113 L 5.2,115.9 a 0.415208,0.415208 -180 0 0 0.415208,-0.41861 L 5.61,105.7 a 0.340334,0.340334 0 0 1 0.340334,-0.34033 L 11.21,105.36 a 0.340334,0.340334 0 0 1 0.340334,0.34033 L 11.55,115.48 a 0.415208,0.415208 -180 0 0 0.415208,0.41861 L 16.77,115.9 a 0.415208,0.415208 0 0 1 0.292688,0.7113 z"
   class="st2"
   id="path29"
   inkscape:connector-curvature="0"
   style="fill:#9cebff;stroke:none;stroke-width:34;stroke-linecap:butt" />
				</g>
				<g
   id="shape18824-9"
   transform="translate(3.87981,-19.7033)">
					<title
   id="title32">Sheet.18824</title>
					<path
   d="m 37.69,124.62 -7.83,-7.83 a 0.929113,0.929113 0 0 1 0,-1.31709 L 37.69,107.65 a 0.415208,0.415208 0 0 1 0.711299,0.29269 L 38.4,112.75 a 0.418611,0.418611 -180 0 0 0.415208,0.41861 L 48.59,113.17 a 0.340334,0.340334 0 0 1 0.340334,0.34033 L 48.93,118.76 a 0.340334,0.340334 0 0 1 -0.340334,0.34033 L 38.81,119.1 a 0.415208,0.415208 -180 0 0 -0.415208,0.41521 L 38.4,124.33 a 0.418611,0.418611 0 0 1 -0.711299,0.28928 z m -26.44,-16.97 7.83,7.83 a 0.929113,0.929113 0 0 1 0,1.31709 L 11.25,124.62 a 0.418611,0.418611 0 0 1 -0.711299,-0.29609 L 10.54,119.51 a 0.415208,0.415208 -180 0 0 -0.415208,-0.41521 L 0.34,119.09 A 0.340334,0.340334 0 0 1 -3.34e-4,118.74967 L 0,113.5 a 0.340334,0.340334 0 0 1 0.340334,-0.34033 L 10.12,113.16 a 0.418611,0.418611 -180 0 0 0.415208,-0.41861 L 10.54,107.94 a 0.415208,0.415208 0 0 1 0.711299,-0.29269 z"
   class="st3"
   id="path34"
   inkscape:connector-curvature="0"
   style="fill:#f2f2f2;stroke:none;stroke-width:34;stroke-linecap:butt" />
				</g>
			</g>
		</g>
	</g>
</svg>

<svg xmlns="http://www.w3.org/2000/svg" xml:space="preserve" width="75.59" height="75.59" style="font-size:12px;overflow:visible;color-interpolation-filters:sRGB;fill-rule:evenodd;stroke-linecap:square;stroke-miterlimit:3" viewBox="0 0 56.693 56.693"><defs><linearGradient id="a" x1="0" x2="56.693" y1="68.016" y2="68.016" gradientUnits="userSpaceOnUse"><stop offset="0" stop-color="#005ba1"/><stop offset=".15" stop-color="#0063af"/><stop offset=".44" stop-color="#006fc3"/><stop offset=".725" stop-color="#0076d0"/><stop offset="1" stop-color="#0078d4"/></linearGradient></defs><g transform="translate(-34 -34)"><title>Page-1</title><g transform="translate(34 -34.016)"><title>Route Server.18820</title><title>Sheet.18821</title><title>Sheet.18822</title><circle cx="28.346" cy="96.362" r="28.346" style="fill:url(#a);stroke:none;stroke-width:34;stroke-linecap:butt"/><g transform="translate(20.088 -3.698)"><title>Sheet.18823</title><path d="m.09 83.51 7.83-7.82a.93.93 0 0 1 1.317 0l7.823 7.82a.415.415 0 0 1-.293.711l-4.817-.001a.415.415-180 0 0-.415.419l.005 9.781a.34.34 0 0 1-.34.34H5.95a.34.34 0 0 1-.34-.34v-9.78a.415.415-180 0 0-.412-.419L.39 84.22a.419.419 0 0 1-.296-.711Zm16.97 33.1-7.83 7.82a.93.93 0 0 1-1.317 0L.09 116.61a.419.419 0 0 1 .296-.711l4.814.001a.415.415-180 0 0 .415-.419L5.61 105.7a.34.34 0 0 1 .34-.34h5.26a.34.34 0 0 1 .34.34v9.78a.415.415-180 0 0 .415.419l4.805.001a.415.415 0 0 1 .293.711z" style="fill:#9cebff;stroke:none;stroke-width:34;stroke-linecap:butt"/></g><g transform="translate(3.88 -19.703)"><title>Sheet.18824</title><path d="m37.69 124.62-7.83-7.83a.93.93 0 0 1 0-1.317l7.83-7.823a.415.415 0 0 1 .711.293l-.001 4.807a.42.42-180 0 0 .415.419l9.775.001a.34.34 0 0 1 .34.34v5.25a.34.34 0 0 1-.34.34h-9.78a.415.415-180 0 0-.415.415l.005 4.815a.419.419 0 0 1-.711.29zm-26.44-16.97 7.83 7.83a.93.93 0 0 1 0 1.317l-7.83 7.823a.419.419 0 0 1-.711-.296l.001-4.814a.415.415-180 0 0-.415-.415L.34 119.09a.34.34 0 0 1-.34-.34v-5.25a.34.34 0 0 1 .34-.34h9.78a.42.42-180 0 0 .415-.419l.005-4.801a.415.415 0 0 1 .711-.293z" style="fill:#f2f2f2;stroke:none;stroke-width:34;stroke-linecap:butt"/></g></g></g></svg>
